artwork/resources/intui/icons/shell/toolbar/apply-code-swap@20x20.svg

<svg width="20" height="20" viewBox="0 0 20 20" fill="none" xmlns="http://www.w3.org/2000/svg">
<path d="M2.5 2H17.5" stroke="#6C707E" stroke-width="1.5" stroke-linecap="round"/>
<path d="M2.5 7H17.5" stroke="#6C707E" stroke-width="1.5" stroke-linecap="round"/>
<path d="M2.5 12H6.5" stroke="#6C707E" stroke-width="1.5" stroke-linecap="round"/>
<path d="M2.5 17H7.5" stroke="#6C707E" stroke-width="1.5" stroke-linecap="round"/>
<path d="M11 16.25C10.5858 16.25 10.25 16.5858 10.25 17C10.25 17.4142 10.5858 17.75 11 17.75V16.25ZM11 17.75H15V16.25H11V17.75ZM15 11.25H11V12.75H15V11.25ZM18.25 14.5C18.25 12.7051 16.7949 11.25 15 11.25V12.75C15.9665 12.75 16.75 13.5335 16.75 14.5H18.25ZM15 17.75C16.7949 17.75 18.25 16.2949 18.25 14.5H16.75C16.75 15.4665 15.9665 16.25 15 16.25V17.75Z" fill="#6C707E"/>
<path d="M12.5 9.5L10 12L12.5 14.5" stroke="#6C707E" stroke-width="1.5" stroke-linecap="round"/>
</svg>

<svg width="20" height="20" viewBox="0 0 20 20" fill="none" xmlns="http://www.w3.org/2000/svg"><path d="M2.5 2h15M2.5 7h15M2.5 12h4M2.5 17h5" stroke="#6C707E" stroke-width="1.5" stroke-linecap="round"/><path d="M11 16.25a.75.75 0 0 0 0 1.5v-1.5zm0 1.5h4v-1.5h-4v1.5zm4-6.5h-4v1.5h4v-1.5zm3.25 3.25A3.25 3.25 0 0 0 15 11.25v1.5c.966 0 1.75.784 1.75 1.75h1.5zM15 17.75a3.25 3.25 0 0 0 3.25-3.25h-1.5A1.75 1.75 0 0 1 15 16.25v1.5z" fill="#6C707E"/><path d="M12.5 9.5L10 12l2.5 2.5" stroke="#6C707E" stroke-width="1.5" stroke-linecap="round"/></svg>
